X:4
T:Coronet
M:C|
L:1/8
K:EDor
f|d2 TAF  E>EF>A|d<AA>B d>ef>d|e>Bd>F  E>EF>A|d>AB>F A2A:|
a|f<da>d Tf>ee>a|f<da>d b>da>d|g<af>g Te>def |ABd>e Tf2e:|

% ~~~~~~~~~~~~~~~~~~~~~~~~~~~~~~~~~

%%  5. ===============================================================================

% @THE DRUMMER.@
%
% *THREE hands round with the first Woman, as much with the second Man.  *Four
% hands round, and Right & Left.  *SETT cross Partners.  *Lead out at the sides.

% @@@@@@@@@@@@@@@@@@@@@@@@@@@@@@@@@@

